X:3
T:Carnaval de Venise
T:Air vari\'e pour Cornet, Trompette, Bugle, Baryton ou Tenorhorn
C:Arban
M:6/8
L:1/16
Q:3/8=54
K:F
P:Variation I
z c=Bc|(3ded cC Lc2 (3_BcB AA, LA2|(3cdc BB, (3BAB G4 (3fgf|edcd (3efe dcBA (3BcB|
W:p. 230
A^GAc Cc A2 z c=Bc|(3ded cC Lc2 (3"^** (org. no triplet)"BcB AA, LA2|(3cdc BB, (3BAB G4 (3fgf|edcd (3efe dcBA (3BcB|
A^GAc Cc A2 z2 c2|f/f/e/e/ _e/e/d/d/ _d/d/c/c/ =B/B/_B/B/ A/A/_A/A/ G/G/F/F/|E2 "^tr"Mc4-(Mc6 {B/c/})|
g/g/^f/f/ =f/f/e/e/ _e/e/d/d/ ^c/c/=c/c/ =B/B/_B/B/ A/A/G/G/|F2 "^tr"Mc4-(Mc6 {B/c/})|f/f/e/e/ _e/e/d/d/ _d/d/c/c/ =B/B/_B/B/ A/A/_A/A/ G/G/F/F/|
E2 "^tr"Mc4-(Mc6 {B/c/})|g/g/^f/f/ =f/f/e/e/ _e/e/d/d/ ^c/c/=c/c/ =B/B/_B/B/ A/A/G/G/|F4 z2 z2 z/ ("_f"c/=B/c/ d/c/B/c/)|
f2 z/ ("_p"C/=B,/C/ A,/C/F/A/) c2 z/ ("_f"c/=B/c/ d/c/B/c/)|_B2 z/ ("_p"C/=B,/C/ _B,/C/)E/G/ B2 z/ ("_<"B/A/B/ c/B/A/B/)|
G2 z/ ("_f"e/^d/e/ f/e/d/e/) c2 z/ (B/A/B/ c/B/A/G/)|(^G>A G/A/G/A/ G/A/c/B/) A2 z/ ("_f"c/=B/c/ d/c/B/c/)|
f2 z/ ("_p"C/=B,/C/ A,/C/F/A/) c2 z/ ("_f"c/=B/c/ d/c/B/c/)|_B2 z/ ("_p"C/=B,/C/ _B,/C/)E/G/ B2 z/ ("_<"B/A/B/ c/B/A/B/)|
G2 z/ ("_f"e/^d/e/ f/e/d/e/) c2 z/ (B/A/B/ c/B/A/G/)|(^G>A G/A/G/A/ G/A/c/B/) A2 z/ ("_f"c/=B/c/ d/c/B/c/)|
fAcFAC (C/F/)A/c/ (f/e/)d/c/ B/A/G/F/|E2 (E/C/)E/G/ (E/G/)c/e/ g2 z/ ("_f"c/=B/c/ d/c/B/c/)|
.E/(c/=B/c/ d/c/B/c/) G/(c/B/c/) (_B/c/).d/.e/ (g/f/e/d/ c/B/A/G/)|F2 (G/F/E/F/) C/F/A/c/ f2 z/ ("_f"c/=B/c/ d/c/B/c/)|
fAcFAC (C/F/).A/.c/ (f/e/).d/.c/ .B/.A/.G/.F/|E2 (E/C/).E/.G/ (E/G/).c/.e/ g2 z/ ("_f"c/=B/c/ d/c/B/c/)|
.E/(c/=B/c/ d/c/B/c/) .G/(c/B/c/) (_B/c/).d/.e/ (g/f/e/d/ c/B/A/G/)|F2 (G/F/E/F/) C/F/A/c/ f2 z2 z2|]
W:p. 231


